source/img/icon-db.svg

<svg width="40" height="40" viewBox="0 0 40 40" fill="none" xmlns="http://www.w3.org/2000/svg">
<path d="M31.5789 18V21C33.8124 21 35.9543 21.8429 37.5335 23.3431C39.1128 24.8434 40 26.8783 40 29C40 30.64 39.4737 32.16 38.5895 33.42L36.2947 31.24C36.6526 30.56 36.8421 29.8 36.8421 29C36.8421 27.6739 36.2876 26.4021 35.3006 25.4645C34.3135 24.5268 32.9748 24 31.5789 24V27L26.8421 22.5L31.5789 18ZM31.5789 40V37C29.3455 37 27.2036 36.1571 25.6244 34.6569C24.0451 33.1566 23.1579 31.1217 23.1579 29C23.1579 27.36 23.6842 25.84 24.5684 24.58L26.8632 26.76C26.5053 27.44 26.3158 28.2 26.3158 29C26.3158 30.3261 26.8703 31.5979 27.8573 32.5355C28.8444 33.4732 30.1831 34 31.5789 34V31L36.3158 35.5L31.5789 40ZM16.8421 0C26.1474 0 33.6842 3.58 33.6842 8C33.6842 12.42 26.1474 16 16.8421 16C7.53684 16 0 12.42 0 8C0 3.58 7.53684 0 16.8421 0ZM0 12C0 16.42 7.53684 20 16.8421 20C19.1789 20 21.4105 19.78 23.4526 19.36C21.4526 21.08 20 23.34 19.3263 25.92L16.8421 26C7.53684 26 0 22.42 0 18V12ZM33.6842 12V16H32.6316L31.3684 16.06C32.8421 14.86 33.6842 13.48 33.6842 12ZM0 22C0 26.42 7.53684 30 16.8421 30L18.9474 29.94C19.1368 32.06 19.8316 34 20.9474 35.76L16.8421 36C7.53684 36 0 32.42 0 28V22Z" fill="#0094FF"/>
</svg>

<svg width="40" height="40" fill="none" xmlns="http://www.w3.org/2000/svg"><path d="M31.579 18v3c2.233 0 4.375.843 5.954 2.343C39.113 24.843 40 26.878 40 29a7.67 7.67 0 01-1.41 4.42l-2.295-2.18a4.78 4.78 0 00.547-2.24 4.876 4.876 0 00-1.541-3.535A5.407 5.407 0 0031.579 24v3l-4.737-4.5L31.58 18zm0 22v-3c-2.233 0-4.375-.843-5.955-2.343-1.579-1.5-2.466-3.535-2.466-5.657 0-1.64.526-3.16 1.41-4.42l2.295 2.18a4.782 4.782 0 00-.547 2.24c0 1.326.554 2.598 1.541 3.535A5.407 5.407 0 0031.58 34v-3l4.737 4.5L31.58 40zM16.842 0c9.305 0 16.842 3.58 16.842 8s-7.537 8-16.842 8S0 12.42 0 8s7.537-8 16.842-8zM0 12c0 4.42 7.537 8 16.842 8 2.337 0 4.569-.22 6.61-.64-2 1.72-3.452 3.98-4.126 6.56l-2.484.08C7.537 26 0 22.42 0 18v-6zm33.684 0v4h-1.052l-1.264.06c1.474-1.2 2.316-2.58 2.316-4.06zM0 22c0 4.42 7.537 8 16.842 8l2.105-.06c.19 2.12.885 4.06 2 5.82l-4.105.24C7.537 36 0 32.42 0 28v-6z" fill="#0094FF"/></svg>
